X:1
T:O Holy Night
T:O Holy Night
T:for instrument solo with band accompaniment
T:by Adolphe Adam arr. Chris Donze 
T:Solo in C (Bass Clef) 
C:Adolphe Adam
L:1/8
Q:1/4=84
M:6/8
K:Bb
V:1 bass nm="Euphonium" snm="Euph."
V:1
 z6 | z6 | z6 | z6 | z6 | z6 | z6 | z6 | z6 | z6 | z6 | z6 ||!mp!"^13" (D,3 D,2 D, | %13
 F,3- F,2) (F, | G,2) G, (E,2 G,) | (B,6 | !breath!F,2) (F, D,2) (C, | B,,3) (D,2 E,) | %18
 F,3 (E,2 C,) |!>(! B,,6!>)! | z6 |!mf!"^22" (D,3 D,2 E, | F,3- F,2) (F, | G,2 G, E,2 G,) | (B,6 | %25
 !breath!F,2) (F, =E,2) D, | !>!A,3 F,3/2G,3/2 | A,3 (B,2 A,) |!<(! D,6!<)! | z3 z z!mf! F, | %30
"^31" (F,3 G,3) | (C,3 F,3) | (G,2 F,) (B,2 D,) | (G,3 !breath!F,2) F, | (F,3 G,3) | C,3- C,2 (F, | %36
 G,2) F, !tenuto!B,3/2!tenuto!D,3/2 | F,3 z3 |!f!"^39" B,6- | B,3 !>!A,3/2!>!G,3/2 | A,6- | %41
 A,3- A,2 A, | !>!!tenuto!C6- | C2 !tenuto!G, !tenuto!G,2 !tenuto!G, |!<(! !tenuto!B,6 | %45
 B,3!<)! z2!ff! (B, |"^47" D6) |!>(! C3- C2 F, | B,6- | B,3!>)!!mp! A,3/2G,3/2 | F,6- | %51
 F,2 F, (!fermata!G,2 F,) |"^53"!<(! F,6- | F, z!<)! z!f! B,3 | C6- | C z z F,3 | (D6- | %57
!>(! D3 C3) | B,6!>)! |!mp! (A,2 B,2 C2) |"^61"!>(! B,6- | B,6- | B,6!>)! | z6 | z6 | z6 | z6 | %67
 z6 | z6 | z6 | z6 | z6 ||!mf!"^73" (D,3 D,2 D, | F,3- F,2) (F, | G,2) (G, E,2) (G, | B,6 | %76
 !breath!F,2) F, (D,2 C, | B,,3) (D,2 E,) | F,3 (E,2 C,) |!>(! B,,6- | B,, z!>)! z4 | %81
!mf!"^82" (D,3 D,2 D, | F,3- F,2) (F, | G,2 G, E,2 G,) | (B,6 | !breath!F,2) (F, =E,2) D, | %86
 !>!A,3 !>!F,3/2!>!G,3/2 | !tenuto!A,3 (B,2 A,) | D,6 | z6 | %90
!f!"^91" (A,/.G,/).B,/.A,/^G,/A,/ (=G,/.F,/).A,/.G,/^F,/G,/ | %91
 (F,/.E,/).G,/.F,/=E,/F,/ (_E,/.D,/).F,/.E,/.D,/.C,/ | %92
 !>!B,,(=E,,/F,,/)B,,/D,/ !>!F,(A,,/B,,/).D,/.F,/ | !>!B,!>!F,!>!B, !>!D(3C/-D/C/B, | %94
 .A,/.G,/.B,/.A,/(^G,/A,/) .=G,/.F,/.A,/.G,/(^F,/G,/) | %95
 .F,/.E,/.G,/.F,/(=E,/F,/) ._E,/.D,/.F,/.E,/(D,/C,/) | .B,,/z/(B,,D, F,)(A,,/B,,/).D,/.F,/ | %97
 !>!B, z!<(! (A,,/B,,/) .C,/.D,/.E,/.F,/.G,/.A,/!<)! |!ff!"^99" !>!B,6 | z3 !>!A,3/2!>!G,3/2 | %100
 !>!A,6- | A,3- A,2 A, | !>!C6- | C2 !tenuto!G, !>!G,2 !tenuto!G, |!>(! !>!B,6 | %105
 !>!B,2!>)! z!ff! !>!B,3 |"^107" !>!D3/2!>!F,3/2 !>!B,3/2!>!D3/2 | !>!F6 |!>(! (B,,D,F,) (B,DF) | %109
 G3 (F3/2E3/2) | (D6!>)! |!mp! E2) (C E2) D | B,6- | B, z z!f! B,3 | %114
"^115" C2 (C,/D,/) (E,/F,/)G,/A,/B,/=B,/ | C2 z F,3 | (F6- | %117
 F2 !fermata!E)({DE)} (D/C/)(=B,/C/)(E/C/)(G,A,) !fermata!D2 (F,/_F,/E,/)C !fermata!G,2 (A, | %118
 B,6) |!<(! A,2 B,2 !>!!fermata!C2!<)! |"^121""^Tempo Primo" B,3- B,2 (_D/C/) | %121
 (B,/_A,/_G,/F,/E,/_D,/) C,B,, z | z3 z2 (E/_D/) | %123
 (C/B,/_A,/G,/F,/E,/)"^Molto Rit." !>!_D,!>!C,!>!_A,, | z6 | z6 |!ff! D3 D2 D | %127
!<(! !fermata!d6!<)! |] %128

